build/assets/img/svg/icon-mail.svg

<svg width="16" height="11" viewBox="0 0 16 11" fill="none" xmlns="http://www.w3.org/2000/svg">
<path fill-rule="evenodd" clip-rule="evenodd" d="M14.1429 0.785714H1.57143C1.13749 0.785714 0.785714 1.13749 0.785714 1.57143V9.42857C0.785714 9.86251 1.13749 10.2143 1.57143 10.2143H14.1429C14.5768 10.2143 14.9286 9.86251 14.9286 9.42857V1.57143C14.9286 1.13749 14.5768 0.785714 14.1429 0.785714ZM1.57143 0C0.703553 0 0 0.703552 0 1.57143V9.42857C0 10.2964 0.703553 11 1.57143 11H14.1429C15.0107 11 15.7143 10.2964 15.7143 9.42857V1.57143C15.7143 0.703553 15.0107 0 14.1429 0H1.57143Z" fill="#A62E41"/>
<path fill-rule="evenodd" clip-rule="evenodd" d="M6.6304 5.86758L0.737061 1.15291L1.22789 0.539368L7.12123 5.25404C7.55166 5.59839 8.16329 5.59839 8.59372 5.25404L14.4871 0.539368L14.9779 1.15291L9.08456 5.86758C8.36716 6.44149 7.34779 6.44149 6.6304 5.86758Z" fill="#A62E41"/>
</svg>

<svg width="16" height="11" fill="none" xmlns="http://www.w3.org/2000/svg"><path fill-rule="evenodd" clip-rule="evenodd" d="M14.143.786H1.57a.786.786 0 00-.785.785V9.43c0 .434.351.785.785.785h12.572a.786.786 0 00.786-.785V1.57a.786.786 0 00-.786-.785zM1.57 0C.704 0 0 .704 0 1.571V9.43C0 10.296.704 11 1.571 11h12.572c.868 0 1.571-.704 1.571-1.571V1.57c0-.866-.703-1.57-1.571-1.57H1.57z" fill="#A62E41"/><path fill-rule="evenodd" clip-rule="evenodd" d="M6.63 5.868L.737 1.153l.49-.614 5.894 4.715a1.18 1.18 0 001.473 0L14.487.539l.49.614-5.892 4.715a1.964 1.964 0 01-2.455 0z" fill="#A62E41"/></svg>
